X:51
T:Buffalo Gals
K:D
M:4/4
L:1/4
Z:abc-transcription Josh Larios <hades@elsewhere.org>, 2014.04.15
B:Sarah Comer, Dusty Strings dance band class.
|:"D"DFAA | BAF2 | "A"AGE2 | "D"BAF2 |
"D"DFAA | BAF2 | "A"AAGE | "D"D2D2 :|
|:"G"dcBA | "D"BAF2 | "A"AGE2 | "D"BAF2 |
"G"dcBA| "D"BAF2 | "A"AAGE | "D"D2D2 :|

